X: 16214
T: Greengrass
R: reel
M: 4/4
K: Gmajor
|d3e3e2|d2B2 AGED|g2e2 dBAG|E3F3G2|
d3e3e2|dBAG AGEG|g2e2d ABd|AGED G4:|
G,A,B,D GABd|g2a2 b4|gd'2 gd'2 g(d'|d') d' gd'4z|
G,A,B,D GABd|g2e2 dBAG|g2e2d ABd|AGED G4:|

